X:2
T:Wee Michael's March
T:Harmony 1
R:March
C:John McCusker
M:3/4
L:1/8
Q:"80 bpm"
K:D
[|{gef}e d/e | {ge}f2 {g}fa {f}g{a}f | e<{g}G {dc}d2 {g}B<{d}G | {g}A3 f g<{a}f | {gef}e3 A {gef}e d/e | 
{ge}f2 {g}fa {f}g{a}f | g<{a}G {dc}d2 {g}B/A/G | {g}A3 {ge}f {g}e>>{gef}e | d3 A {gef}e d/e |
{ge}d6 | g<{a}d {gf}g4 | {g}f3 d {c}d2 | {ag}a4 {g}ag | 
f2 d2 e2 | d2 g4 | {a}f3 d c2 | f4 {Gdc}de/f/ ||
d6 | d2 a3 {g}a<(f [M:2/4] | f)f d2 [M:3/4] | d2 c2 {Gdc}de/f/ |
d6 | d2 a3 {g}a<(f [M:2/4] | f)f c2 [M:3/4] | f4 {Gdc}de/f/ |
d4 e2 | d2 ef a<(f [M:2/4] | f)f d2 [M:3/4] | {ag}a4 {g}ag | 
f2 d2 e2 | d2 g4 | d4 c2 |  "Play full beat off on beat 2"f2 z4 |] 

